humanity-icon-theme/Humanity/actions/24/go-down.svg

<?xml version="1.0" encoding="UTF-8" standalone="no"?>
<!-- Created with Inkscape (http://www.inkscape.org/) -->

<svg
   xmlns:svg="http://www.w3.org/2000/svg"
   xmlns="http://www.w3.org/2000/svg"
   xmlns:xlink="http://www.w3.org/1999/xlink"
   version="1.0"
   width="24"
   height="24"
   id="svg2">
  <defs
     id="defs4">
    <linearGradient
       id="linearGradient5105-262-943-861">
      <stop
         id="stop2487"
         style="stop-color:#0d0d0d;stop-opacity:1"
         offset="0" />
      <stop
         id="stop2489"
         style="stop-color:#0d0d0d;stop-opacity:0"
         offset="1" />
    </linearGradient>
    <radialGradient
       cx="11.25"
       cy="19.03125"
       r="8.0625"
       fx="11.25"
       fy="19.03125"
       id="radialGradient2505"
       xlink:href="#linearGradient5105-262-943-861"
       gradientUnits="userSpaceOnUse"
       gradientTransform="matrix(1,0,0,0.282946,0,13.64644)" />
    <linearGradient
       id="linearGradient4168">
      <stop
         id="stop4170"
         style="stop-color:#f8cd70;stop-opacity:1"
         offset="0" />
      <stop
         id="stop4172"
         style="stop-color:#cc9110;stop-opacity:1"
         offset="1" />
    </linearGradient>
    <linearGradient
       x1="28.314739"
       y1="20.709501"
       x2="0.81572169"
       y2="20.709501"
       id="linearGradient3292"
       xlink:href="#linearGradient4168"
       gradientUnits="userSpaceOnUse"
       gradientTransform="matrix(0,-0.4917505,-0.482368,0,23.524238,22.407852)" />
    <linearGradient
       id="linearGradient4222">
      <stop
         id="stop4224"
         style="stop-color:white;stop-opacity:1"
         offset="0" />
      <stop
         id="stop4226"
         style="stop-color:white;stop-opacity:0"
         offset="1" />
    </linearGradient>
    <linearGradient
       x1="13.471772"
       y1="25.410501"
       x2="57.726395"
       y2="25.410501"
       id="linearGradient3294"
       xlink:href="#linearGradient4222"
       gradientUnits="userSpaceOnUse"
       gradientTransform="matrix(0,0.5703354,-0.5568703,0,26.661377,-2.8655828)" />
  </defs>
  <g
     id="layer1">
    <path
       d="m 19.3125,19.03125 a 8.0625,2.28125 0 1 1 -16.125,0 8.0625,2.28125 0 1 1 16.125,0 z"
       transform="matrix(1.4883719,0,0,1.4465766,-4.7441844,-6.8301629)"
       id="path4346"
       style="opacity:0.16292138;fill:url(#radialGradient2505);fill-opacity:1;fill-rule:nonzero;stroke:none;stroke-width:1;marker:none;visibility:visible;display:inline;overflow:visible" />
    <path
       d="m 21.507286,10.499999 -9.53117,11.007287 -9.483402,-11.007287 4.007286,0 0,-9.0072858 11,0 0,9.0072858 4.007286,0 z"
       id="path3288"
       style="fill:url(#linearGradient3292);fill-opacity:1;fill-rule:nonzero;stroke:#bf8407;stroke-width:0.98542732;stroke-linecap:round;stroke-linejoin:round;stroke-miterlimit:4;stroke-opacity:1;stroke-dasharray:none;stroke-dashoffset:0;marker:none;visibility:visible;display:inline;overflow:visible" />
    <path
       d="M 19.3874,11.499999 12,20.032054 4.661523,11.499999 l 2.838477,0 0,-8.9999998 9,0 0,8.9999998 2.8874,0 z"
       id="path3290"
       style="opacity:0.35400008;fill:none;stroke:url(#linearGradient3294);stroke-width:0.98542732;stroke-linecap:butt;stroke-linejoin:miter;stroke-miterlimit:4;stroke-opacity:1;stroke-dasharray:none;stroke-dashoffset:0;marker:none;visibility:visible;display:inline;overflow:visible" />
  </g>
</svg>

<?xml version="1.0" encoding="UTF-8" standalone="no"?>
<!-- Created with Inkscape (http://www.inkscape.org/) -->
<svg
   xmlns:svg="http://www.w3.org/2000/svg"
   xmlns="http://www.w3.org/2000/svg"
   xmlns:xlink="http://www.w3.org/1999/xlink"
   version="1.0"
   width="24"
   height="24"
   id="svg3264">
  <defs
     id="defs3266">
    <linearGradient
       id="linearGradient5105-262-943-861">
      <stop
         id="stop2487"
         style="stop-color:#0d0d0d;stop-opacity:1"
         offset="0" />
      <stop
         id="stop2489"
         style="stop-color:#0d0d0d;stop-opacity:0"
         offset="1" />
    </linearGradient>
    <radialGradient
       cx="11.25"
       cy="19.03125"
       r="8.0625"
       fx="11.25"
       fy="19.03125"
       id="radialGradient2483"
       xlink:href="#linearGradient5105-262-943-861"
       gradientUnits="userSpaceOnUse"
       gradientTransform="matrix(1.4883719,0,0,0.4093031,-4.7441844,12.910458)" />
    <linearGradient
       id="linearGradient3390-178-986-453">
      <stop
         id="stop3624"
         style="stop-color:#bb2b12;stop-opacity:1"
         offset="0" />
      <stop
         id="stop3626"
         style="stop-color:#cd7233;stop-opacity:1"
         offset="1" />
    </linearGradient>
    <linearGradient
       x1="6.2256021"
       y1="22"
       x2="6.2256021"
       y2="0.88314164"
       id="linearGradient3262"
       xlink:href="#linearGradient3390-178-986-453"
       gradientUnits="userSpaceOnUse" />
    <linearGradient
       id="linearGradient7012-661-145-733-759-865-745-661-970-94">
      <stop
         id="stop3618"
         style="stop-color:#f0c178;stop-opacity:1"
         offset="0" />
      <stop
         id="stop3270"
         style="stop-color:#e18941;stop-opacity:1"
         offset="0.5" />
      <stop
         id="stop3620"
         style="stop-color:#ec4f18;stop-opacity:1"
         offset="1" />
    </linearGradient>
    <linearGradient
       x1="43.548359"
       y1="20.709501"
       x2="0.81572169"
       y2="20.709501"
       id="linearGradient2480"
       xlink:href="#linearGradient7012-661-145-733-759-865-745-661-970-94"
       gradientUnits="userSpaceOnUse"
       gradientTransform="matrix(0,-0.4917505,-0.482368,0,23.524238,22.407852)" />
    <linearGradient
       id="linearGradient4222">
      <stop
         id="stop4224"
         style="stop-color:#ffffff;stop-opacity:1"
         offset="0" />
      <stop
         id="stop4226"
         style="stop-color:#ffffff;stop-opacity:0"
         offset="1" />
    </linearGradient>
    <linearGradient
       x1="8.5438643"
       y1="26.284245"
       x2="41.049515"
       y2="26.284245"
       id="linearGradient2477"
       xlink:href="#linearGradient4222"
       gradientUnits="userSpaceOnUse"
       gradientTransform="matrix(0,0.5703354,-0.5568703,0,26.661377,-2.8655828)" />
  </defs>
  <g
     id="layer1">
    <path
       d="M 23.999998,20.699998 C 23.999998,22.52254 18.627416,24.000001 11.999999,24.000001 C 5.3725832,24.000001 8.8241281e-07,22.52254 1.03125e-06,20.699998 C 8.8241281e-07,18.877456 5.3725832,17.399995 11.999999,17.399995 C 18.627416,17.399995 23.999998,18.877456 23.999998,20.699998 L 23.999998,20.699998 z"
       id="path4346"
       style="opacity:0.16292138;fill:url(#radialGradient2483);fill-opacity:1;fill-rule:nonzero;stroke:none;stroke-width:1;marker:none;visibility:visible;display:inline;overflow:visible" />
    <path
       d="M 21.507286,10.499999 L 11.976116,21.507286 L 2.492714,10.499999 L 6.5,10.499999 L 6.5,1.4927132 L 17.5,1.4927132 L 17.5,10.499999 L 21.507286,10.499999 z"
       id="path3288"
       style="fill:url(#linearGradient2480);fill-opacity:1;fill-rule:nonzero;stroke:url(#linearGradient3262);stroke-width:0.98542732;stroke-linecap:round;stroke-linejoin:round;marker:none;stroke-miterlimit:4;stroke-dasharray:none;stroke-dashoffset:0;stroke-opacity:1;visibility:visible;display:inline;overflow:visible" />
    <path
       d="M 19.3874,11.499999 L 12,20.032054 L 4.661523,11.499999 L 7.5,11.499999 L 7.5,2.4999992 L 16.5,2.4999992 L 16.5,11.499999 L 19.3874,11.499999 z"
       id="path3290"
       style="opacity:0.4;fill:none;stroke:url(#linearGradient2477);stroke-width:0.98542732;stroke-linecap:butt;stroke-linejoin:miter;marker:none;stroke-miterlimit:4;stroke-dasharray:none;stroke-dashoffset:0;stroke-opacity:1;visibility:visible;display:inline;overflow:visible" />
  </g>
</svg>
